X:2161
T:Brig, Da
S:Charlie Menzies
R:Jig
O:Shetland
M:6/8
K:D
ABc | [d3D3] [A3D3] | AFD D3 |\
d3 A2F | D2g fef | \
d3 A3 | AFD D2F | E2F G2A | {Bc}B3 :|*
|: ABc |\
d2e f2d | c2d ecA | d2e f2d | g3 f2g |\
a2f g2e | f2d e2c | d2A AFA | B3 :|**


